dist/icons/svgs/chevron-circle-left-solid.svg

<svg xmlns="http://www.w3.org/2000/svg" width="24" height="24" fill="currentcolor" class="icon-chevron-circle-left-solid" viewBox="0 0 24 24">
  <path d="M22 12C22 15.5938 20.0859 18.875 17 20.6719C13.875 22.4688 10.0859 22.4688 7 20.6719C3.875 18.875 2 15.5938 2 12C2 8.44531 3.875 5.16406 7 3.36719C10.0859 1.57031 13.875 1.57031 17 3.36719C20.0859 5.16406 22 8.44531 22 12ZM12.5859 7.27344L8.52344 11.375C8.13281 11.7266 8.13281 12.3125 8.52344 12.6641L12.5859 16.7266C12.9375 17.1172 13.5234 17.1172 13.875 16.7266C14.2656 16.375 14.2656 15.7891 13.875 15.3984L10.4766 12L13.875 8.60156C14.2656 8.25 14.2656 7.66406 13.875 7.27344C13.5234 6.92188 12.9375 6.92188 12.5859 7.27344Z"/>
</svg>

<svg xmlns="http://www.w3.org/2000/svg" width="24" height="24" fill="currentColor" class="icon-chevron-circle-left-solid" viewBox="0 0 24 24">
  <path d="M22 12c0 3.594-1.914 6.875-5 8.672-3.125 1.797-6.914 1.797-10 0C3.875 18.875 2 15.594 2 12a9.93 9.93 0 0 1 5-8.633c3.086-1.797 6.875-1.797 10 0 3.086 1.797 5 5.078 5 8.633m-9.414-4.727-4.063 4.102a.856.856 0 0 0 0 1.29l4.063 4.062c.351.39.937.39 1.289 0 .39-.352.39-.938 0-1.329L10.477 12l3.398-3.398c.39-.352.39-.938 0-1.329a.92.92 0 0 0-1.29 0"/>
</svg>
